src/assets/filled/Path2.svg

<svg width="24" height="24" viewBox="0 0 24 24"  xmlns="http://www.w3.org/2000/svg">
<path d="M14.15 21.9998H9.82998C8.28998 21.9998 7.14998 20.7498 7.44998 19.4198L7.96998 17.0998C8.06998 16.6398 8.47998 16.3198 8.94998 16.3198H15.04C15.51 16.3198 15.91 16.6398 16.02 17.0998L16.54 19.4098C16.86 20.8398 15.79 21.9998 14.15 21.9998Z" />
<path d="M18.8201 13.69L17.7501 14.63C17.3801 14.95 16.9101 15.13 16.4301 15.13H7.59008C7.10008 15.13 6.62008 14.95 6.26008 14.62L5.21007 13.68C3.49007 12.27 3.48007 11.19 4.80007 9.53L10.0301 2.92C10.0666 2.87094 10.1041 2.82374 10.1425 2.77836C10.5835 2.25735 11.2701 2.70487 11.2701 3.38743V6.86C11.2601 7.29 11.6001 7.63 12.0201 7.62C12.4401 7.63 12.7701 7.29 12.7801 6.86V3.38743C12.7801 2.70487 13.4564 2.2676 13.9091 2.77848C13.9466 2.82077 13.9836 2.8646 14.0201 2.91L19.2301 9.53C20.5301 11.19 20.4801 12.22 18.8201 13.69Z" />
</svg>

<?xml version="1.0" encoding="UTF-8"?>
<svg width="24" height="24" viewBox="0 0 24 24" xmlns="http://www.w3.org/2000/svg">
 <path d="m14.15 22h-4.32c-1.54 0-2.68-1.25-2.38-2.58l0.52-2.32c0.1-0.46 0.51-0.78 0.98-0.78h6.09c0.47 0 0.87 0.32 0.98 0.78l0.52 2.31c0.32 1.43-0.75 2.59-2.39 2.59z"/>
 <path d="m18.82 13.69-1.07 0.94c-0.37 0.32-0.84 0.5-1.32 0.5h-8.84c-0.49 0-0.97-0.18-1.33-0.51l-1.05-0.94c-1.72-1.41-1.73-2.49-0.41-4.15l5.23-6.61c0.0365-0.04906 0.074-0.09626 0.1124-0.14164 0.441-0.52101 1.1276-0.07349 1.1276 0.60907v3.4726c-0.01 0.43 0.33 0.77 0.75 0.76 0.42 0.01 0.75-0.33 0.76-0.76v-3.4726c0-0.68256 0.6763-1.1198 1.129-0.60895 0.0375 0.04229 0.0745 0.08612 0.111 0.13152l5.21 6.62c1.3 1.66 1.25 2.69-0.41 4.16z"/>
</svg>
